icons/desktop/20/warning-fill-20.svg

<svg width="20" height="20" viewBox="0 0 20 20" fill="none" xmlns="http://www.w3.org/2000/svg">
<path fill-rule="evenodd" clip-rule="evenodd" d="M9.96254 1C11.1585 1.00003 12.3551 1.59892 13.0221 2.79883L19.0456 13.6299C20.2985 15.8838 18.763 18.686 16.1881 18.8291C14.0252 18.9491 11.9641 19 10.0182 19C7.85225 19 5.77364 18.9372 3.79067 18.8262C1.23102 18.682 -0.286636 15.8943 0.946918 13.6475L6.89516 2.81543C7.55908 1.60562 8.76071 1.00016 9.96254 1ZM9.99965 13.5C9.44748 13.5001 8.99965 13.9478 8.99965 14.5C8.99965 15.0522 9.44748 15.4999 9.99965 15.5C10.5519 15.5 10.9997 15.0523 10.9997 14.5C10.9997 13.9477 10.5519 13.5 9.99965 13.5ZM9.99965 6.5C9.51676 6.50013 9.12465 6.89208 9.12465 7.375V11.125C9.12465 11.6079 9.51676 11.9999 9.99965 12C10.4827 12 10.8747 11.608 10.8747 11.125V7.375C10.8747 6.892 10.4827 6.5 9.99965 6.5Z" fill="black"/>
</svg>

<!-- This Source Code Form is subject to the terms of the Mozilla Public
   - License, v. 2.0. If a copy of the MPL was not distributed with this
   - file, You can obtain one at http://mozilla.org/MPL/2.0/. -->
<svg xmlns="http://www.w3.org/2000/svg" width="20" height="20" fill="context-fill" fill-opacity="context-fill-opacity" viewBox="0 0 20 20">
    <path fill-rule="evenodd" d="M9.963 1c1.196 0 2.392.599 3.06 1.799l6.023 10.83c1.253 2.255-.283 5.057-2.858 5.2a111 111 0 0 1-12.397-.003c-2.56-.144-4.078-2.932-2.844-5.178L6.895 2.815A3.46 3.46 0 0 1 9.963 1M10 13.5a1 1 0 1 0 0 2 1 1 0 0 0 0-2m0-7a.876.876 0 0 0-.875.875v3.75a.876.876 0 0 0 1.75 0v-3.75A.875.875 0 0 0 10 6.5" clip-rule="evenodd" />
</svg>
